X:1
T:Raise the Song
T:Grant Colfax Tullar
T:Raise the Song
T:Public Domain
T:Public Domain
T:Public Domain
C:Grant Colfax Tullar
Z:Public Domain
%%score ( 1 2 ) ( 3 4 )
L:1/8
M:4/4
K:Db
V:1 treble 
V:2 treble 
V:3 bass 
V:4 bass 
V:1
 [DF]>[DF] [DF]2 [=B,F]>[B,F] [B,F]2 | [CG]>[CF] [CG]>[CF] [CG]4 | %2
w: 1.~Raise the song, raise the song,|sound it far and near,|
w: 2.~Raise the song, raise the song,|o- ver land and sea,|
w: 3.~Raise the song, raise the song,|see the ban- ners sway!|
 [CE]>[DF] [EG]>[FA] [Gc]>[G=B] [Gc]2 | [FB]>[F=A] [FB]>[Fc] [FB]>[DF] [F_A]2 | %4
w: Let the notes of rap- ture swell|With the joy- ful words they tell;|
w: So our mu- sic may im- part|Joy re- newed in ev- ery heart;|
w: May they ev- er bright- ly shine|Glow- ing with a light di- vine;|
 [DF]>[DF] [DF]2 [=B,F]>[B,F] [B,F]2 | [CG]>[CF] [CG]>[CF] [CG]4 | %6
w: Raise the song, raise the song,|hap- py an- thems bring,|
w: Raise the song, raise the song,|set the e- choes free,|
w: Raise the song, raise the song,|joy- ful an- thems bring,|
 [CE]>[CF] [E=G]>[EA] [Fc]>[FB] [Fd]>[DB] | [DF]2 [D=G]2 ([CA]2 (3ABc) || %8
w: Tell- ing all who hear the call, the|Lord is King. * * *|
w: Words of praise, thro’ all our days, our|song shall be. * * *|
w: Mu- sic sweet must ev- er greet the|Lord, our King. * * *|
"^Refrain" [Fd]2 (3dcB [DF]2 (3F=EF | [FA]>[FA] [FB]>[Fd] [Gc]4 | [Gc]2 (3cB[FA] [EG]2 (3GFG | %11
w: |||
w: Bring, mer- ri- ly bring, voic- es and|join the song, Sing, mer-|ri- ly sing, rais- ing a chor- us|
w: |||
 [GB]>[GB] [Gc]>[Gc] ([FA]2 (3ABc) | [Fd]2 (3dcB [DF]2 (3F=EF | [FA]>[FB] [Ac]>[Ad] [GB]4 | %14
w: |||
w: strong; Ring, mer- ri- ly * * *|ring, e- cho- ing bells from Heav- en|we raise in a song|
w: |||
 [Gd]>[Gd] (3[=Ed][Ec][EB] [FA]>[FB] [Ac]>[Ad] | [=Gf]2 [Ge]2 [Fd]4 |] %16
w: ||
w: of praise to Christ our King. * * *||
w: ||
V:2
 x8 | x8 | x8 | x8 | x8 | x8 | x8 | x8 || x2 F2 x4/3 D2 x2/3 | x8 | x2 G2 x4/3 E2 x2/3 | x8 | %12
w: ||||||||||||
w: ||||||||hearts to||full and||
 x2 F2 x4/3 D2 x2/3 | x8 | x8 | x8 |] %16
w: ||||
w: ring! Joy||||
V:3
 [D,A,]>[D,A,] [D,A,]2 [=D,A,]>[D,A,] [D,A,]2 | [E,A,]>A, [E,A,]>[D,A,] [E,A,]4 | %2
 A,>A, A,>A, [A,E]>[A,=D] [A,E]2 | [D,D]>[D,D] [D,D]>[D,D] [D,D]>[D,A,] [D,D]2 | %4
 [D,A,]>[D,A,] [D,A,]2 [=D,A,]>[D,A,] [D,A,]2 | [E,A,]>[=D,A,] [E,A,]>[D,A,] [E,A,]4 | %6
 [A,,A,]>[A,,A,] [C,A,]>[C,A,] [D,A,]>[D,A,] [B,,B,]>[B,,F,] | [B,,B,]2 [E,B,]2 [A,,A,]2 z2 || %8
 [D,A,]2 [A,,A,]2 [D,A,]2 [A,,A,]2 | [D,A,]2 [A,,A,]2 ([E,A,]2 [A,,A,]2) | %10
 [E,A,]2 [A,,A,]2 [C,A,]2 [A,,A,]2 | [C,A,]2 [A,,A,]2 [D,A,]2 z2 | %12
 [D,A,]2 [A,,A,]2 [D,A,]2 [A,,A,]2 | [D,A,]2 [F,D]2 [G,D]4 | %14
 [G,B,]>[G,B,] (3[=G,B,][G,C][G,D] [A,D]>[A,D] [G,E]>[F,D] | (D>B,) [A,C]2 [D,D]4 |] %16
V:4
 x8 | x8 | A,>A, A,>A, x4 | x8 | x8 | x8 | x8 | x8 || x8 | x8 | x8 | x8 | x8 | x8 | x8 | E,2 x6 |] %16

